src/assets/images/avatar.svg

<svg fill="none" height="35" viewBox="0 0 35 35" width="35" xmlns="http://www.w3.org/2000/svg"><path d="m35 17.5c0 9.665-7.835 17.5-17.5 17.5-9.66499 0-17.5-7.835-17.5-17.5 0-9.66499 7.83501-17.5 17.5-17.5 9.665 0 17.5 7.83501 17.5 17.5z" fill="#fff"/><path d="m35 2.05078v2.05078c0 1.13258-.9181 2.05078-2.0508 2.05078h-7.6694c-.2885 1.12417-.9752 2.08852-1.9009 2.73438-.9256-.64586-1.6124-1.61021-1.9009-2.73438h-1.5171c-1.1326 0-2.0507-.9182-2.0507-2.05078v-2.05078c0-1.132577.9181-2.05078 2.0507-2.05078h12.9883c1.1327 0 2.0508.918203 2.0508 2.05078z" fill="#ffc143"/><path d="m21.4478 6.15234h-1.4869c-1.1326 0-2.0507-.9182-2.0507-2.05078v-2.05078c0-1.132577.9181-2.05078 2.0507-2.05078h1.4869c-1.1327 0-2.0508.918203-2.0508 2.05078v2.05078c0 1.13258.9181 2.05078 2.0508 2.05078z" fill="#f5c108"/><path d="m31.582 1.6748v.75196c0 .07547-.0612.13672-.1367.13672h-11.3476c-.0755 0-.1368-.06125-.1368-.13672v-.75196c0-.07546.0613-.13671.1368-.13671h11.3476c.0755 0 .1367.06125.1367.13671zm-7.1093 1.91407h-4.375c-.0755 0-.1368.06125-.1368.13672v.75195c0 .07547.0613.13672.1368.13672h4.375c.0754 0 .1367-.06125.1367-.13672v-.75195c0-.07547-.0613-.13672-.1367-.13672zm2.9565 0c-.2831 0-.5127.22955-.5127.51269 0 .28315.2296.5127.5127.5127s.5127-.22955.5127-.5127c0-.28314-.2296-.51269-.5127-.51269zm-1.6235 0c-.2832 0-.5127.22955-.5127.51269 0 .28315.2295.5127.5127.5127.2831 0 .5127-.22955.5127-.5127 0-.28314-.2296-.51269-.5127-.51269zm3.247 0c-.2831 0-.5127.22955-.5127.51269 0 .28315.2296.5127.5127.5127.2832 0 .5127-.22955.5127-.5127 0-.28314-.2295-.51269-.5127-.51269z" fill="#4b4f51"/><path d="m32.1973 18.1864v1.2249c0 .9091-.3014 1.7932-.8584 2.5118-1.308 1.6873-2.9179 3.1289-4.7485 4.244-.4812 3.0093-1.7807 5.7453-3.6627 7.9736-1.7089.5569-3.5328.8593-5.4277.8593s-3.7188-.3024-5.4277-.8594c-1.882-2.2282-3.18148-4.9642-3.66273-7.9735-1.8306-1.1151-3.44046-2.5567-4.74845-4.2441-.55699-.7185-.85839-1.6026-.85839-2.5117v-1.2249c0-.9092.3014-1.7932.85839-2.5118 3.07098-3.9616 7.80518-6.56872 13.15528-6.77428v-2.60271c-.4966-.2504-.8374-.7646-.8374-1.35865 0-.84.681-1.52099 1.521-1.52099s1.521.68099 1.521 1.52099c0 .59405-.3408 1.10825-.8374 1.35865v2.60271c5.3501.20556 10.0843 2.81268 13.1553 6.77438.557.7185.8584 1.6025.8584 2.5117z" fill="#d9e7ec"/><path d="m17.5 28.506c3.3435 0 6.4678-.9377 9.1245-2.5644-.0904.6192-.2153 1.2272-.3726 1.8221-2.5332 1.5997-5.5344 2.5256-8.7519 2.5256-1.6835 0-3.3075-.254-4.8364-.725-.5172-.1594-1.0113.3104-.8656.8317.4059 1.4527.9376 2.8311 1.579 4.1143-.4417-.1067-.8767-.2301-1.3047-.3696-1.882-2.2282-3.18025-4.9645-3.66143-7.9738-1.83094-1.115-3.44149-2.5561-4.74975-4.2438-.55699-.7185-.85839-1.6025-.85839-2.5117v-1.2249c0-.9092.3014-1.7932.85839-2.5118 2.39121-3.0847 5.79086-5.3483 9.70448-6.29628-3.0772 1.22748-5.74456 3.35388-7.72206 6.08088-.55699.7681-.85838 1.7131-.85838 2.685v1.3093c0 .9719.30139 1.9169.85838 2.685 1.70694 2.3539 3.92814 4.2596 6.48286 5.5266 1.6932.5459 3.4989.8408 5.3736.8408zm5.0928-7.3145c2.4539 0 4.4433-1.9894 4.4433-4.4433 0-2.454-1.9894-4.4434-4.4433-4.4434-2.454 0-4.4434 1.9894-4.4434 4.4434 0 2.4539 1.9894 4.4433 4.4434 4.4433zm-14.62893-4.4433c0 2.4539 1.98939 4.4433 4.44333 4.4433 2.454 0 4.4434-1.9894 4.4434-4.4433 0-2.454-1.9894-4.4434-4.4434-4.4434-2.45394 0-4.44333 1.9894-4.44333 4.4434z" fill="#c5d3dd"/><path d="m19.5508 23.584c0 .9583-.9009 1.709-2.0508 1.709s-2.0508-.7507-2.0508-1.709c0-.3775.3061-.6836.6836-.6836.3776 0 .6836.3061.6836.6836 0 .1205.2595.3418.6836.3418.424 0 .6836-.2213.6836-.3418 0-.3775.3061-.6836.6836-.6836s.6836.3061.6836.6836z" fill="#9facba"/><path d="m26.3525 16.748c0 2.0765-1.6832 3.7598-3.7597 3.7598s-3.7598-1.6833-3.7598-3.7598c0-.3556.0505-.6992.1427-1.0253h-2.9514c.0922.3261.1427.6697.1427 1.0253 0 2.0765-1.6833 3.7598-3.7598 3.7598s-3.75974-1.6833-3.75974-3.7598c0-2.0764 1.68324-3.7597 3.75974-3.7597 1.3196 0 2.4797.6804 3.1506 1.709h3.8844c.6708-1.0286 1.8309-1.709 3.1505-1.709 2.0766 0 3.7598 1.6833 3.7598 3.7597z" fill="#4b4f51"/><path d="m15.1416 16.748c0 1.5102-1.2242 2.7344-2.7344 2.7344-1.5101 0-2.73435-1.2242-2.73435-2.7344 0-1.5101 1.22425-2.7343 2.73435-2.7343 1.5102 0 2.7344 1.2242 2.7344 2.7343zm7.4512-2.7343c-1.5102 0-2.7344 1.2242-2.7344 2.7343 0 1.5102 1.2242 2.7344 2.7344 2.7344 1.5101 0 2.7343-1.2242 2.7343-2.7344 0-1.5101-1.2242-2.7343-2.7343-2.7343z" fill="#4b4f51"/><path d="m15.1419 16.748c0 1.3813-1.0243 2.5227-2.3547 2.7075.6555-.6216 1.0787-1.6028 1.0787-2.7075 0-1.1046-.4232-2.0859-1.0787-2.7075 1.3304.1849 2.3547 1.3263 2.3547 2.7075zm7.8309-2.7075c.6554.6217 1.0787 1.6029 1.0787 2.7075 0 1.1047-.4233 2.086-1.0787 2.7075 1.3303-.1848 2.3547-1.3262 2.3547-2.7075 0-1.3812-1.0244-2.5226-2.3547-2.7075z" fill="#fff"/></svg>

<svg width="35" height="35" viewBox="0 0 35 35" fill="none" xmlns="http://www.w3.org/2000/svg">
<path d="M35 17.5C35 27.165 27.165 35 17.5 35C7.83501 35 0 27.165 0 17.5C0 7.83501 7.83501 0 17.5 0C27.165 0 35 7.83501 35 17.5Z" fill="#E8F8F1"/>
<path d="M35 2.05078V4.10156C35 5.23414 34.0819 6.15234 32.9492 6.15234H25.2798C24.9913 7.27651 24.3046 8.24086 23.3789 8.88672C22.4533 8.24086 21.7665 7.27651 21.478 6.15234H19.9609C18.8283 6.15234 17.9102 5.23414 17.9102 4.10156V2.05078C17.9102 0.918203 18.8283 0 19.9609 0H32.9492C34.0819 0 35 0.918203 35 2.05078Z" fill="#FFC143"/>
<path d="M21.4478 6.15234H19.9609C18.8283 6.15234 17.9102 5.23414 17.9102 4.10156V2.05078C17.9102 0.918203 18.8283 0 19.9609 0H21.4478C20.3151 0 19.397 0.918203 19.397 2.05078V4.10156C19.397 5.23414 20.3151 6.15234 21.4478 6.15234Z" fill="#F5C108"/>
<path d="M31.582 1.6748V2.42676C31.582 2.50223 31.5208 2.56348 31.4453 2.56348H20.0977C20.0222 2.56348 19.9609 2.50223 19.9609 2.42676V1.6748C19.9609 1.59934 20.0222 1.53809 20.0977 1.53809H31.4453C31.5208 1.53809 31.582 1.59934 31.582 1.6748ZM24.4727 3.58887H20.0977C20.0222 3.58887 19.9609 3.65012 19.9609 3.72559V4.47754C19.9609 4.55301 20.0222 4.61426 20.0977 4.61426H24.4727C24.5481 4.61426 24.6094 4.55301 24.6094 4.47754V3.72559C24.6094 3.65012 24.5481 3.58887 24.4727 3.58887ZM27.4292 3.58887C27.1461 3.58887 26.9165 3.81842 26.9165 4.10156C26.9165 4.38471 27.1461 4.61426 27.4292 4.61426C27.7123 4.61426 27.9419 4.38471 27.9419 4.10156C27.9419 3.81842 27.7123 3.58887 27.4292 3.58887ZM25.8057 3.58887C25.5225 3.58887 25.293 3.81842 25.293 4.10156C25.293 4.38471 25.5225 4.61426 25.8057 4.61426C26.0888 4.61426 26.3184 4.38471 26.3184 4.10156C26.3184 3.81842 26.0888 3.58887 25.8057 3.58887ZM29.0527 3.58887C28.7696 3.58887 28.54 3.81842 28.54 4.10156C28.54 4.38471 28.7696 4.61426 29.0527 4.61426C29.3359 4.61426 29.5654 4.38471 29.5654 4.10156C29.5654 3.81842 29.3359 3.58887 29.0527 3.58887Z" fill="#4B4F51"/>
<path d="M32.1973 18.1864V19.4113C32.1973 20.3204 31.8959 21.2045 31.3389 21.9231C30.0309 23.6104 28.421 25.052 26.5904 26.1671C26.1092 29.1764 24.8097 31.9124 22.9277 34.1407C21.2188 34.6976 19.3949 35 17.5 35C15.6051 35 13.7812 34.6976 12.0723 34.1406C10.1903 31.9124 8.89082 29.1764 8.40957 26.1671C6.57897 25.052 4.96911 23.6104 3.66112 21.923C3.10413 21.2045 2.80273 20.3204 2.80273 19.4113V18.1864C2.80273 17.2772 3.10413 16.3932 3.66112 15.6746C6.7321 11.713 11.4663 9.10588 16.8164 8.90032V6.29761C16.3198 6.04721 15.979 5.53301 15.979 4.93896C15.979 4.09896 16.66 3.41797 17.5 3.41797C18.34 3.41797 19.021 4.09896 19.021 4.93896C19.021 5.53301 18.6802 6.04721 18.1836 6.29761V8.90032C23.5337 9.10588 28.2679 11.713 31.3389 15.6747C31.8959 16.3932 32.1973 17.2772 32.1973 18.1864Z" fill="#D9E7EC"/>
<path d="M17.5 28.506C20.8435 28.506 23.9678 27.5683 26.6245 25.9416C26.5341 26.5608 26.4092 27.1688 26.2519 27.7637C23.7187 29.3634 20.7175 30.2893 17.5 30.2893C15.8165 30.2893 14.1925 30.0353 12.6636 29.5643C12.1464 29.4049 11.6523 29.8747 11.798 30.396C12.2039 31.8487 12.7356 33.2271 13.377 34.5103C12.9353 34.4036 12.5003 34.2802 12.0723 34.1407C10.1903 31.9125 8.89205 29.1762 8.41087 26.1669C6.57993 25.0519 4.96938 23.6108 3.66112 21.9231C3.10413 21.2046 2.80273 20.3206 2.80273 19.4114V18.1865C2.80273 17.2773 3.10413 16.3933 3.66112 15.6747C6.05233 12.59 9.45198 10.3264 13.3656 9.37842C10.2884 10.6059 7.62104 12.7323 5.64354 15.4593C5.08655 16.2274 4.78516 17.1724 4.78516 18.1443V19.4536C4.78516 20.4255 5.08655 21.3705 5.64354 22.1386C7.35048 24.4925 9.57168 26.3982 12.1264 27.6652C13.8196 28.2111 15.6253 28.506 17.5 28.506ZM22.5928 21.1915C25.0467 21.1915 27.0361 19.2021 27.0361 16.7482C27.0361 14.2942 25.0467 12.3048 22.5928 12.3048C20.1388 12.3048 18.1494 14.2942 18.1494 16.7482C18.1494 19.2021 20.1388 21.1915 22.5928 21.1915ZM7.96387 16.7482C7.96387 19.2021 9.95326 21.1915 12.4072 21.1915C14.8612 21.1915 16.8506 19.2021 16.8506 16.7482C16.8506 14.2942 14.8612 12.3048 12.4072 12.3048C9.95326 12.3048 7.96387 14.2942 7.96387 16.7482Z" fill="#C5D3DD"/>
<path d="M19.5508 23.584C19.5508 24.5423 18.6499 25.293 17.5 25.293C16.3501 25.293 15.4492 24.5423 15.4492 23.584C15.4492 23.2065 15.7553 22.9004 16.1328 22.9004C16.5104 22.9004 16.8164 23.2065 16.8164 23.584C16.8164 23.7045 17.0759 23.9258 17.5 23.9258C17.924 23.9258 18.1836 23.7045 18.1836 23.584C18.1836 23.2065 18.4897 22.9004 18.8672 22.9004C19.2447 22.9004 19.5508 23.2065 19.5508 23.584Z" fill="#9FACBA"/>
<path d="M26.3525 16.748C26.3525 18.8245 24.6693 20.5078 22.5928 20.5078C20.5163 20.5078 18.833 18.8245 18.833 16.748C18.833 16.3924 18.8835 16.0488 18.9757 15.7227H16.0243C16.1165 16.0488 16.167 16.3924 16.167 16.748C16.167 18.8245 14.4837 20.5078 12.4072 20.5078C10.3307 20.5078 8.64746 18.8245 8.64746 16.748C8.64746 14.6716 10.3307 12.9883 12.4072 12.9883C13.7268 12.9883 14.8869 13.6687 15.5578 14.6973H19.4422C20.113 13.6687 21.2731 12.9883 22.5927 12.9883C24.6693 12.9883 26.3525 14.6716 26.3525 16.748Z" fill="#4B4F51"/>
<path d="M15.1416 16.748C15.1416 18.2582 13.9174 19.4824 12.4072 19.4824C10.8971 19.4824 9.67285 18.2582 9.67285 16.748C9.67285 15.2379 10.8971 14.0137 12.4072 14.0137C13.9174 14.0137 15.1416 15.2379 15.1416 16.748ZM22.5928 14.0137C21.0826 14.0137 19.8584 15.2379 19.8584 16.748C19.8584 18.2582 21.0826 19.4824 22.5928 19.4824C24.1029 19.4824 25.3271 18.2582 25.3271 16.748C25.3271 15.2379 24.1029 14.0137 22.5928 14.0137Z" fill="#4B4F51"/>
<path d="M15.142 16.748C15.142 18.1293 14.1176 19.2707 12.7873 19.4555C13.4427 18.8339 13.866 17.8527 13.866 16.748C13.866 15.6434 13.4427 14.6621 12.7873 14.0405C14.1176 14.2254 15.142 15.3668 15.142 16.748ZM22.9729 14.0405C23.6283 14.6622 24.0516 15.6434 24.0516 16.748C24.0516 17.8527 23.6283 18.834 22.9729 19.4555C24.3032 19.2707 25.3276 18.1293 25.3276 16.748C25.3276 15.3668 24.3032 14.2254 22.9729 14.0405Z" fill="#E8F8F1"/>
</svg>
